X: 11621
T: The GLASGOW MARCH
C: Copyright.--John Turnbull.
%R: march
B: W. Hamilton "Universal Tune-Book" Vol. 1 Glasgow 1844 p.162 #1
S: http://imslp.org/wiki/Hamilton's_Universal_Tune-Book_(Various)
Z: 2016 John Chambers <jc:trillian.mit.edu>
M: C
L: 1/8
K: E
%%slurgraces yes
%%graceslurs yes
% - - - - - - - - - - - - - - - - - - - - - - - - -
B/e>g !ff!|:\
b4 g4 | e2 E>E E2 zE/F/ |\
GG/A/ BB/c/ dd/e/ ff/g/ | a4 f2 !p!B>g |\
fedc Bgfe | dcBA G2 c>c |\
!f!B>Bg>g f>fb>b |1 g2e>e e>Be>g :|2 g2e>e e2 ||
|: "^mezf."B/c/d/e/ |\
fgfb g2 E/F/G/A/ | BcBe !p!c2 c'b |\
(3(aba) (3(gag) (3(fgf) (3(efe) | (3(ded) (3(cdc) B2 !f!g>e |\
B4 G4 | E2 e>e d>dc>c |\
B>Bg>g f>fb>b | g2e>e e2 :|
|: "^Bugle."zB/B/ |\
dB/B/ dB/B/ eB/B/ eB/B/ | fB/B/ fB/B/ g2 "^dolce."fe |\
deBc EFGA | (G4 F2) zB/B/ |\
"^mezf."dB/B/ dB/B/ eB/B/ eB/B/ | fB/B/ fB/B/ gf"^dolce"ed |\
fedc BAGF | (F4 E2) :|
% - - - - - - - - - - - - - - - - - - - - - - - - -

%%sep 1 1 500
%%sep 1 1 500

